X: 374
T: Pibroch O' Donald Dhu
N: page 135
N: heptatonic
R: jig
M: 6/8
L: 1/8
K: A
f|:"A"ecc "D"fga | "A"ecc cBA|ecc "D"fga | "A"ecA "E7"B2A|
 "A"ecc "D"fga | "A"ecc cBA|"Bm"B2c "E7"def | "A"ecA "E7"B2 A:|
|:"A"aee "D"aff | "A"acc cBA| "A"aee "D"aff | "A"ecA "E7"B2 A|
 "A"aee "D"aff | "A"acc cBA| "Bm"B2c "E7"def | "A"ecA "E7"B2 "A" A:|]
%%newpage
%%scale 0.7
